wp-content/themes/salient-child/src/img/Quotes.svg

<svg height="45" viewBox="0 0 54 45" width="54" xmlns="http://www.w3.org/2000/svg"><path d="m12.7677966 45c6.1779661 0 10.9144068-4.7787611 10.9144068-10.5530973 0-5.9734514-4.1186441-10.1548673-9.8847458-10.1548673-1.029661 0-2.4711864.199115-2.6771186.199115.6177966-6.3716814 6.5898305-14.3362831 13.179661-18.51769907l-7.6194915-5.97345133c-9.47288138 6.57079646-16.6805085 17.7212389-16.6805085 29.8672566 0 9.7566372 5.9720339 15.1327434 12.7677966 15.1327434zm29.7 0c6.1779661 0 11.120339-4.7787611 11.120339-10.5530973 0-5.9734514-4.3245763-10.1548673-10.090678-10.1548673-1.029661 0-2.4711864.199115-2.6771186.199115.8237288-6.3716814 6.5898305-14.3362831 13.179661-18.51769907l-7.6194915-5.97345133c-9.4728814 6.57079646-16.6805085 17.7212389-16.6805085 29.8672566 0 9.7566372 5.9720339 15.1327434 12.7677966 15.1327434z" fill="#e4e85c"/></svg>

<?xml version="1.0" encoding="UTF-8"?>
<svg width="54px" height="45px" viewBox="0 0 54 45" version="1.1" xmlns="http://www.w3.org/2000/svg" xmlns:xlink="http://www.w3.org/1999/xlink">
    <title>Quotes</title>
    <g id="Revised-version" stroke="none" stroke-width="1" fill="none" fill-rule="evenodd">
        <path d="M12.7677966,45 C18.9457627,45 23.6822034,40.2212389 23.6822034,34.4469027 C23.6822034,28.4734513 19.5635593,24.2920354 13.7974576,24.2920354 C12.7677966,24.2920354 11.3262712,24.4911504 11.120339,24.4911504 C11.7381356,18.119469 17.7101695,10.1548673 24.3,5.97345133 L16.6805085,0 C7.20762712,6.57079646 0,17.7212389 0,29.8672566 C0,39.6238938 5.9720339,45 12.7677966,45 Z M42.4677966,45 C48.6457627,45 53.5881356,40.2212389 53.5881356,34.4469027 C53.5881356,28.4734513 49.2635593,24.2920354 43.4974576,24.2920354 C42.4677966,24.2920354 41.0262712,24.4911504 40.820339,24.4911504 C41.6440678,18.119469 47.4101695,10.1548673 54,5.97345133 L46.3805085,0 C36.9076271,6.57079646 29.7,17.7212389 29.7,29.8672566 C29.7,39.6238938 35.6720339,45 42.4677966,45 Z" id="Quotes" fill="#E4E85C" fill-rule="nonzero"></path>
    </g>
</svg>
